src/status/16/youtube-music-tray.svg

<svg version="1.1" viewBox="0 0 16 16" xmlns="http://www.w3.org/2000/svg">
    <defs>
        <style id="current-color-scheme" type="text/css">.ColorScheme-Text { color:#fff; } .ColorScheme-Highlight { color:#4285f4; } .ColorScheme-NeutralText { color:#ff9800; } .ColorScheme-PositiveText { color:#4caf50; } .ColorScheme-NegativeText { color:#f44336; }</style>
    </defs>
    <path class="ColorScheme-Text" d="m8 1a7 7 0 0 0-7 7 7 7 0 0 0 7 7 7 7 0 0 0 7-7 7 7 0 0 0-7-7zm0 2a5 5 0 0 1 5 5 5 5 0 0 1-5 5 5 5 0 0 1-5-5 5 5 0 0 1 5-5zm-0.0605469 1a4 3.999999 0 0 0-3.9394531 4 4 3.999999 0 0 0 4 4 4 3.999999 0 0 0 4-4 4 3.999999 0 0 0-4-4 4 3.999999 0 0 0-0.0078125 0 4 3.999999 0 0 0-0.0527344 0zm-0.9394531 2 3 2-3 2v-2-2z" fill="currentColor"/>
</svg>

<svg xmlns="http://www.w3.org/2000/svg" width="16" height="16" version="1.1">
 <defs>
  <style id="current-color-scheme" type="text/css">
   .ColorScheme-Text { color:#fff; } .ColorScheme-Highlight { color:#4285f4; } .ColorScheme-NeutralText { color:#ff9800; } .ColorScheme-PositiveText { color:#4caf50; } .ColorScheme-NegativeText { color:#f44336; }
  </style>
 </defs>
 <path style="fill:currentColor" class="ColorScheme-Text" d="M 8 1 A 7 7 0 0 0 1 8 A 7 7 0 0 0 8 15 A 7 7 0 0 0 15 8 A 7 7 0 0 0 8 1 z M 8 3 A 5 5 0 0 1 13 8 A 5 5 0 0 1 8 13 A 5 5 0 0 1 3 8 A 5 5 0 0 1 8 3 z M 7.9394531 4 A 4 3.999999 0 0 0 4 8 A 4 3.999999 0 0 0 8 12 A 4 3.999999 0 0 0 12 8 A 4 3.999999 0 0 0 8 4 A 4 3.999999 0 0 0 7.9921875 4 A 4 3.999999 0 0 0 7.9394531 4 z M 7 6 L 8.5 7 L 10 8 L 8.5 9 L 7 10 L 7 8 L 7 6 z"/>
</svg>
